X:1
T:Title
%%score 1 { 2 | 3 }
L:1/8
Q:1/4=160
M:3/2
K:Ab
V:1 treble nm="Grand Piano, Unnamed-000"
V:2 treble nm="Choir Pad, Missionary Chant"
V:3 bass 
V:1
 [Ec]2 [Ec]2 [Ec]2 [Ec]4 [EA]2- | [EA]2 [FB]2 [FB]2 [EG]6- | [EG]2 [=EG]4 [FA]2 [FA]2 [FA]2- | %3
w: By~Heinrich~Christoph~Zeuner,~1832 * * * *|||
 [FA]2 [FA]4 [Ac]6- | [Ac]2 [GB]4 [Ac]6 | [Ec]2 [Ec]2 [Ec]2 [FA]6 | [FA]2 [DF]2 [DF]2 [CE]6 | %7
w: ||||
 E2 E2 E2 [EA]2 [EA]2 [EG]2- | [EG]2 [EB]4 [EA]6- | [EA]8 z4 |] %10
w: |||
V:2
 C2 C2 C2 C4 C2- | C2 D2 D2 B,6- | B,2 C4 C2 C2 C2- | C2 C4 E6- | E2 E4 E6 | A,2 A,2 A,2 A,6 | %6
 A,2 A,2 A,2 A,6 | C2 C2 C2 C2 C2 B,2- | B,2 D4 C6- | C8 z4 |] %10
V:3
 A,2 A,2 A,2 A,4 A,2- | A,2 D,2 D,2 E,6- | E,2 C,4 F,2 F,2 F,2- | F,2 F,4 E,6- | E,2 E,4 A,,6 | %5
 A,,2 A,,2 A,,2 D,6 | D,2 D,2 D,2 A,,6 | A,2 A,2 A,2 E,2 E,2 E,2- | E,2 E,4 A,,6- | A,,8 z4 |] %10

